symbolic/22x22/apps/popcorn-time.svg

<svg xmlns="http://www.w3.org/2000/svg" width="22" height="22" version="1.1">
 <path style="opacity:0.2" d="M 13,1.5 C 10.640356,1.502037 8.5570885,2.8872511 7.5859375,4.9570312 A 3,3 0 0 0 6,4.5 3,3 0 0 0 3,7.5 3,3 0 0 0 3.8457031,9.587891 2.5,2.5 0 0 0 2,12 2.5,2.5 0 0 0 2.046875,12.472656 c 0.00494,0.02579 0.011849,0.05067 0.017578,0.07617 a 2.5,2.5 0 0 0 0.1269531,0.408203 c 0.00526,0.01268 0.012115,0.02454 0.017578,0.03711 a 2.5,2.5 0 0 0 0.2128906,0.392578 c 0.00679,0.01016 0.014549,0.01924 0.021484,0.0293 a 2.5,2.5 0 0 0 0.2832031,0.34375 c 0.00689,0.0069 0.014515,0.01267 0.021484,0.01953 a 2.5,2.5 0 0 0 0.3398437,0.283203 2.5,2.5 0 0 0 0.00781,0.0039 c 0.00827,0.0056 0.017052,0.0101 0.025391,0.01563 a 2.5,2.5 0 0 0 0.40625,0.220703 2.5,2.5 0 0 0 0.4375,0.136719 c 0.013284,0.0029 0.025701,0.0071 0.039062,0.0098 0.00444,8.94e-4 0.00922,0.0011 0.013672,0.002 A 2.5,2.5 0 0 0 4.5,14.5 2.5,2.5 0 0 0 5,14.445312 L 5,14.5 c 0,1.662 1.338,3 3,3 l 6,0 c 1.662,0 3,-1.338 3,-3 l 0,-0.05078 C 17.164538,14.4829 17.332051,14.49991 17.5,14.5 18.880712,14.5 20,13.380712 20,12 19.9984,11.031514 19.437571,10.151083 18.560547,9.740234 18.849054,9.028496 18.998239,8.2679875 19,7.5 c 0,-3.3137085 -2.686292,-6 -6,-6 z"/>
 <path style="opacity:0.2" d="M 5.5,13.5 C 4.668999,13.5 4,14.129991 4,14.912109 L 4,20.5 c 0,0.554 0.418125,1 0.9375,1 l 2.0625,0 3,0 3,0 3,0 2.0625,0 C 18.581875,21.5 19,21.054 19,20.5 l 0,-5.587891 C 19,14.129991 18.331001,13.5 17.5,13.5 16.668999,13.5 16,14.129991 16,14.912109 L 16,15.5 C 16,14.669 15.331,14 14.5,14 13.669,14 13,14.669 13,15.5 l 0,0.5 c 0,-0.831001 -0.669,-1.5 -1.5,-1.5 -0.831,0 -1.5,0.668999 -1.5,1.5 l 0,-0.5 C 10,14.669 9.331,14 8.5,14 7.669,14 7,14.669 7,15.5 L 7,14.912109 C 7,14.129991 6.331001,13.5 5.5,13.5 Z"/>
 <path style="fill:#e6c59a" d="M 13,1 C 10.640356,1.002037 8.5570885,2.3872511 7.5859375,4.4570312 A 3,3 0 0 0 6,4 3,3 0 0 0 3,7 3,3 0 0 0 3.8457031,9.087891 2.5,2.5 0 0 0 2,11.5 2.5,2.5 0 0 0 2.046875,11.972656 c 0.00494,0.02579 0.011849,0.05067 0.017578,0.07617 a 2.5,2.5 0 0 0 0.1269531,0.408203 c 0.00526,0.01268 0.012115,0.02454 0.017578,0.03711 a 2.5,2.5 0 0 0 0.2128906,0.392578 c 0.00679,0.01017 0.014549,0.01924 0.021484,0.0293 a 2.5,2.5 0 0 0 0.2832031,0.34375 c 0.00689,0.0069 0.014515,0.01267 0.021484,0.01953 a 2.5,2.5 0 0 0 0.3398437,0.283203 2.5,2.5 0 0 0 0.00781,0.0039 c 0.00827,0.0056 0.017052,0.0101 0.025391,0.01563 a 2.5,2.5 0 0 0 0.40625,0.220703 2.5,2.5 0 0 0 0.4375,0.136719 c 0.013284,0.0029 0.025701,0.0071 0.039062,0.0098 0.00444,8.94e-4 0.00922,0.0011 0.013672,0.002 A 2.5,2.5 0 0 0 4.5,14 2.5,2.5 0 0 0 5,13.945312 L 5,14 c 0,1.662 1.338,3 3,3 l 6,0 c 1.662,0 3,-1.338 3,-3 l 0,-0.05078 C 17.164538,13.982899 17.332051,13.99991 17.5,14 18.880712,14 20,12.880712 20,11.5 19.9984,10.531514 19.437571,9.651083 18.560547,9.240234 18.849054,8.5284962 18.998239,7.7679875 19,7 19,3.6862915 16.313708,1 13,1 Z"/>
 <path style="opacity:0.2;fill:#ffffff" d="M 13,1 C 10.640356,1.002037 8.5570885,2.3872511 7.5859375,4.4570312 A 3,3 0 0 0 6,4 3,3 0 0 0 3,7 3,3 0 0 0 3.0136719,7.2441406 3,3 0 0 1 6,4.5 3,3 0 0 1 7.5859375,4.9570312 C 8.5570885,2.8872511 10.640356,1.502037 13,1.5 c 3.229266,0 5.854213,2.5531976 5.986328,5.75 C 18.990004,7.1666245 18.999808,7.0836061 19,7 19,3.6862915 16.313708,1 13,1 Z M 3.5292969,9.201172 A 2.5,2.5 0 0 0 2,11.5 2.5,2.5 0 0 0 2.0136719,11.736328 2.5,2.5 0 0 1 3.8457031,9.587891 3,3 0 0 1 3.5292969,9.201172 Z M 18.707031,9.322266 c -0.04516,0.140358 -0.09094,0.280931 -0.146484,0.417968 0.78715,0.368747 1.315954,1.117351 1.417969,1.966797 C 19.984307,11.637598 20,11.57093 20,11.5 19.9985,10.587933 19.497495,9.759485 18.707031,9.322266 Z"/>
 <path style="fill:#a81a1a" d="m 13,11 c 0,1.104569 -0.895431,2 -2,2 -1.104569,0 -2,-0.895431 -2,-2 z"/>
 <circle style="fill:#3f3f3f" cx="6.5" cy="9.5" r="1.5"/>
 <path style="fill:#e54b3f" d="M 17.5,13 C 16.668999,13 16,13.629647 16,14.411765 L 16,21 18.0625,21 C 18.581875,21 19,20.554 19,20 l 0,-5.588235 C 19,13.629647 18.331001,13 17.5,13 Z"/>
 <path style="fill:#e54b3f" d="M 11.5,14 C 10.669,14 10,14.668999 10,15.5 l 0,5.5 3,0 0,-5.5 C 13,14.668999 12.331,14 11.5,14 Z"/>
 <path style="fill:#ffffff" d="M 14.5,13.5 C 13.669,13.5 13,14.169 13,15 l 0,6 3,0 0,-6 c 0,-0.831 -0.669,-1.5 -1.5,-1.5 z"/>
 <path style="fill:#e54b3f" d="M 5.5,13 C 6.331001,13 7,13.629647 7,14.411765 L 7,21 4.9375,21 C 4.418125,21 4,20.554 4,20 L 4,14.411765 C 4,13.629647 4.668999,13 5.5,13 Z"/>
 <path style="fill:#ffffff" d="m 8.5,13.5 c 0.831,0 1.5,0.669 1.5,1.5 l 0,6 -3,0 0,-6 c 0,-0.831 0.669,-1.5 1.5,-1.5 z"/>
 <circle style="fill:#3f3f3f" cx="15.5" cy="9.5" r="1.5"/>
</svg>

<svg xmlns="http://www.w3.org/2000/svg" width="22" height="22"><path style="opacity:.2" d="M13 1.5a5.99 5.99 0 0 0-5.414 3.457A3 3 0 0 0 6 4.5a3 3 0 0 0-3 3 3 3 0 0 0 .846 2.088A2.5 2.5 0 0 0 2 12a2.5 2.5 0 0 0 .047.473l.017.076a2.5 2.5 0 0 0 .127.408l.018.037a2.5 2.5 0 0 0 .213.393l.021.029a2.5 2.5 0 0 0 .284.344l.021.02a2.5 2.5 0 0 0 .34.283 2.5 2.5 0 0 0 .008.003l.025.016a2.5 2.5 0 0 0 .406.22 2.5 2.5 0 0 0 .438.137c.013.003.026.008.039.01l.014.002a2.5 2.5 0 0 0 .482.049 2.5 2.5 0 0 0 .5-.055v.055c0 1.662 1.338 3 3 3h6c1.662 0 3-1.338 3-3v-.05A2.5 2.5 0 0 0 20 12a2.5 2.5 0 0 0-1.44-2.26A6 6 0 0 0 19 7.5a6 6 0 0 0-6-6z"/><path style="opacity:.2" d="M5.5 13.5c-.831 0-1.5.63-1.5 1.412V20.5c0 .554.418 1 .938 1h13.125c.519 0 .937-.446.937-1v-5.588c0-.782-.669-1.412-1.5-1.412s-1.5.63-1.5 1.412v.588c0-.831-.669-1.5-1.5-1.5s-1.5.669-1.5 1.5v.5c0-.831-.669-1.5-1.5-1.5S10 15.169 10 16v-.5c0-.831-.669-1.5-1.5-1.5S7 14.669 7 15.5v-.588c0-.782-.669-1.412-1.5-1.412z"/><path style="fill:#e6c59a" d="M13 1a5.99 5.99 0 0 0-5.414 3.457A3 3 0 0 0 6 4a3 3 0 0 0-3 3 3 3 0 0 0 .846 2.088A2.5 2.5 0 0 0 2 11.5a2.5 2.5 0 0 0 .047.473l.017.076a2.5 2.5 0 0 0 .127.408l.018.037a2.5 2.5 0 0 0 .213.393l.021.029a2.5 2.5 0 0 0 .284.344l.021.02a2.5 2.5 0 0 0 .34.283 2.5 2.5 0 0 0 .008.003l.025.016a2.5 2.5 0 0 0 .406.22 2.5 2.5 0 0 0 .438.137c.013.003.026.008.039.01l.014.002A2.5 2.5 0 0 0 4.5 14a2.5 2.5 0 0 0 .5-.055V14c0 1.662 1.338 3 3 3h6c1.662 0 3-1.338 3-3v-.05a2.5 2.5 0 0 0 3-2.45 2.5 2.5 0 0 0-1.44-2.26A6 6 0 0 0 19 7a6 6 0 0 0-6-6z"/><path style="opacity:.2;fill:#fff" d="M13 1a5.99 5.99 0 0 0-5.414 3.457A3 3 0 0 0 6 4a3 3 0 0 0-3 3 3 3 0 0 0 .014.244A3 3 0 0 1 6 4.5a3 3 0 0 1 1.586.457A5.99 5.99 0 0 1 13 1.5a5.994 5.994 0 0 1 5.986 5.75C18.99 7.167 19 7.084 19 7a6 6 0 0 0-6-6zM3.53 9.201A2.5 2.5 0 0 0 2 11.5a2.5 2.5 0 0 0 .014.236 2.5 2.5 0 0 1 1.832-2.148 3 3 0 0 1-.317-.387zm15.177.121c-.045.14-.09.281-.146.418a2.499 2.499 0 0 1 1.418 1.967c.005-.07.021-.136.021-.207a2.495 2.495 0 0 0-1.293-2.178z"/><path style="fill:#a81a1a" d="M13 11a2 2 0 0 1-4 0z"/><circle style="fill:#3f3f3f" cx="6.5" cy="9.5" r="1.5"/><path style="fill:#e54b3f" d="M17.5 13c-.831 0-1.5.63-1.5 1.412V21h2.063c.519 0 .937-.446.937-1v-5.588C19 13.63 18.331 13 17.5 13zM11.5 14c-.831 0-1.5.669-1.5 1.5V21h3v-5.5c0-.831-.669-1.5-1.5-1.5z"/><path style="fill:#fff" d="M14.5 13.5c-.831 0-1.5.669-1.5 1.5v6h3v-6c0-.831-.669-1.5-1.5-1.5z"/><path style="fill:#e54b3f" d="M5.5 13c.831 0 1.5.63 1.5 1.412V21H4.937C4.418 21 4 20.554 4 20v-5.588C4 13.63 4.669 13 5.5 13z"/><path style="fill:#fff" d="M8.5 13.5c.831 0 1.5.669 1.5 1.5v6H7v-6c0-.831.669-1.5 1.5-1.5z"/><circle style="fill:#3f3f3f" cx="15.5" cy="9.5" r="1.5"/></svg>
